X: 686
T: Jethro's Tune
C:Kenneth "Jethro" Burns
B: jims roots
M:4/4
L:1/8
Q: 1/4=100
K:F
V:1 
"Dm"a2 "pulloff"{agf}eg fd^ce | dAFB AFDF | "E7"E^DEG _AGA=A | =B^ABc d^cdf |
"A7"ecA_A GFED | ^CDEF GBAG | "Dm"FEDF ED^CE |[1 D3"Dm"[Fd]- y[Fd][Fd] [F2d] :|
 "E7"(3EFG (3ABc fd=B^G | fd=B^G edcB | "A7"A^ceg bgec | [^c4a]z4 ||
"Dm"a2 "pulloff"{agf}eg fd^ce | dAFB AFDA | "Gm"d "pulloff"{dcB}Ac BG^FA | GDB,_E DB,G,B, |
"A7"A,^CEG "E7"_B^ceg | bge^c "A7"agfe | "Dm"defg "A7"ad'af |[1 d4z4!D.C.! y:|
V:2 "Dm"dd/d/ fa d'4 |
% abcbook-tune_id 6298c25d378ef7b55e441630


% abcbook-boost 0
% abcbook-tablature 
% abcbook-transpose 
% abcbook-lastupdated 1654178399172
% abcbook-soundfonts 
% abcbook-repeats 1


